X: 23173
T: Le Printemps
R: reel
M: 4/4
K: Dmajor
D2 FD EDFA|dfec dBAF|(3 DDD FA defd|gece fd d2|
B3 d ABAF|GFEG FD D2|dcdf edcA|Bcde fd d2:|
|:B3 B- BcdB|AAEA CEA,E|B2 FB BcdB|Bcec fcec|
BBFB BcdB|AAEA CEA,E|B3 d ABAF|GFEF FD D2:|

